X: 947
T: Swinging Around the Circle
R: hornpipe
%S: s:4 b:16(4+4+4+4)
B: Francis O'Neill: "The Dance Music of Ireland" (1907) #947
Z: Frank Nordberg - http://www.musicaviva.com
F: http://www.musicaviva.com/abc/tunes/ireland/oneill-1001/0947/oneill-1001-0947-1.abc
N: Compacted via repeats and multiple endings, and omitting the slurs [JC]
M: C
L: 1/8
K: D
"^A"|: FG | ABAG FDFA | BABc dcdB |[1,3 AFdB AFDF | EDEF E2 :|[2,4 AdcB AGFE | D2DE D2 :|
"^B"|: FG | Ad (3(dcd) Ad (3(dcd) | Adfd edcd | efgf edc [1,3 f | edcB AG :|[2,4 e | d2dc d2 :|
